X:1
T:Shan Van Vauch [2], The
M:C
L:1/8
R:Air
Q:"Moderato"
B:J. Clinton – Gems of Ireland:200 Airs (1841, No. 200, p. 104)
Z:AK/Fiddler’s Companion
K:G
(G>A)|(B>c)(d>e) .d2 (B>A)|.G2.G2!fermata!.G2 (G>A)|(B>A)(B>c) .d2 (e>g)|.a2.a2!fermata!.a2 (g>a)|
(b>a)(g>e) .g2 (f>e)|(d>e)(d>B) !fermata!.A2 (G>A)|(B>c)(d>e) .d2 (B>A)|.G2.G2!fermata!.G2||

